src/img/icons/location.svg

<svg width="32" height="32" viewBox="0 0 32 32" fill="none" xmlns="http://www.w3.org/2000/svg">
<path d="M15.5937 27.3393C18.4632 24.777 20.6523 22.329 22.1611 19.9954C23.6698 17.6621 24.4242 15.6218 24.4242 13.8744C24.4242 11.2157 23.5796 9.03018 21.8905 7.31789C20.2014 5.60585 18.1025 4.74982 15.5937 4.74982C13.0849 4.74982 10.986 5.60585 9.29684 7.31789C7.60772 9.03018 6.76316 11.2157 6.76316 13.8744C6.76316 15.6218 7.52632 17.6621 9.05263 19.9954C10.5787 22.329 12.7591 24.777 15.5937 27.3393ZM15.5902 29C15.3539 29 15.1188 28.9614 14.8849 28.8842C14.651 28.8073 14.4407 28.6823 14.254 28.5095C13.2573 27.596 12.2149 26.568 11.1267 25.4253C10.0387 24.2823 9.04117 23.0751 8.13403 21.8035C7.2269 20.5319 6.47778 19.222 5.88667 17.8737C5.29556 16.5254 5 15.1923 5 13.8744C5 10.6356 6.0476 8.01345 8.14281 6.00807C10.2382 4.00269 12.7219 3 15.5937 3C18.4655 3 20.9491 4.00269 23.0446 6.00807C25.1398 8.01345 26.1874 10.6356 26.1874 13.8744C26.1874 15.1923 25.8918 16.5246 25.3007 17.8712C24.7096 19.2181 23.9627 20.5267 23.06 21.7968C22.1573 23.0668 21.162 24.2725 20.074 25.414C18.9861 26.5553 17.9436 27.5827 16.9467 28.4961C16.7635 28.6688 16.5517 28.7959 16.3112 28.8775C16.0708 28.9592 15.8304 29 15.5902 29ZM15.5989 15.9733C16.2511 15.9733 16.8076 15.7412 17.2684 15.2768C17.7295 14.8125 17.96 14.2543 17.96 13.6021C17.96 12.9499 17.7277 12.3935 17.2632 11.9326C16.7988 11.4716 16.2406 11.2411 15.5884 11.2411C14.9363 11.2411 14.3798 11.4732 13.9189 11.9375C13.4579 12.4021 13.2274 12.9605 13.2274 13.6126C13.2274 14.2646 13.4596 14.8211 13.9242 15.2821C14.3885 15.7429 14.9468 15.9733 15.5989 15.9733Z" fill="#131212"/>
</svg>

<svg xmlns="http://www.w3.org/2000/svg" viewBox="0 0 32 32">
  <path fill="currentColor" d="M15.594 27.34c2.87-2.563 5.058-5.011 6.567-7.345 1.509-2.333 2.263-4.373 2.263-6.12 0-2.66-.844-4.845-2.534-6.557-1.689-1.712-3.788-2.568-6.296-2.568-2.51 0-4.608.856-6.297 2.568-1.69 1.712-2.534 3.898-2.534 6.556 0 1.748.763 3.788 2.29 6.121 1.526 2.334 3.706 4.782 6.54 7.344ZM15.59 29c-.236 0-.471-.039-.705-.116a1.704 1.704 0 0 1-.631-.375 64.919 64.919 0 0 1-3.127-3.084 33.284 33.284 0 0 1-2.993-3.622 21.92 21.92 0 0 1-2.247-3.93C5.296 16.526 5 15.194 5 13.875c0-3.238 1.048-5.86 3.143-7.866C10.238 4.003 12.722 3 15.593 3c2.872 0 5.356 1.003 7.452 3.008 2.095 2.005 3.142 4.628 3.142 7.866 0 1.318-.295 2.65-.886 3.997a22.115 22.115 0 0 1-2.241 3.926 32.678 32.678 0 0 1-2.986 3.617 65.204 65.204 0 0 1-3.127 3.082c-.183.173-.395.3-.636.382a2.24 2.24 0 0 1-.72.122Zm.009-13.027c.652 0 1.209-.232 1.67-.696a2.291 2.291 0 0 0 .691-1.675c0-.652-.232-1.209-.697-1.67a2.292 2.292 0 0 0-1.675-.69 2.27 2.27 0 0 0-1.67.695 2.293 2.293 0 0 0-.69 1.676c0 .652.232 1.208.696 1.67.465.46 1.023.69 1.675.69Z"/>
</svg>
